static/icons/auditor.svg

<svg width="64" height="60" viewBox="0 0 64 60" fill="none" xmlns="http://www.w3.org/2000/svg">
<path d="M2.80882 0H39.1814C40.3252 0 41.2402 0.915033 41.2402 2.05882V50.6536C41.2402 51.7974 40.3252 52.7124 39.1814 52.7124C39.1814 52.7124 10.3905 52.7778 2.64542 52.7451C1.59967 52.7451 0.75 51.8954 0.75 50.8497L0.75 2.05882C0.75 0.915033 1.66503 0 2.80882 0ZM2.87418 0.718954C2.15523 0.718954 1.56699 1.30719 1.56699 2.02614V50.6209C1.56699 51.3399 2.15523 51.9281 2.87418 51.9281H39.2467C39.9657 51.9281 40.5539 51.3399 40.5539 50.6209V10.6863L40.4559 2.05882C40.4559 1.33987 39.835 0.718954 39.116 0.718954H2.87418Z" fill="#22417D"/>
<path d="M2.87408 0.718994C2.15513 0.718994 1.56689 1.30723 1.56689 2.02618V50.621C1.56689 51.3399 2.15513 51.9281 2.87408 51.9281H39.2466C39.9656 51.9281 40.5538 51.3399 40.5538 50.621V10.6863L40.4558 2.05886C40.4558 1.33991 39.8349 0.718994 39.1159 0.718994H2.87408Z" fill="#EBECE9"/>
<path d="M6.07689 3.26794H42.4494C43.5932 3.26794 44.5083 4.18298 44.5083 5.32677V53.9215C44.5083 55.0653 43.5932 55.9804 42.4494 55.9804C42.4494 55.9804 13.6586 56.0457 5.91349 56.013C4.86774 56.013 4.01807 55.1634 4.01807 54.1176V5.32677C4.01807 4.18298 4.9331 3.26794 6.07689 3.26794ZM6.14225 3.9869C5.4233 3.9869 4.83506 4.57513 4.83506 5.29409V53.8889C4.83506 54.6078 5.4233 55.196 6.14225 55.196H42.5148C43.2338 55.196 43.822 54.6078 43.822 53.8889V13.9542L43.7239 5.32677C43.7239 4.60781 43.103 3.9869 42.3841 3.9869H6.14225Z" fill="#22417D"/>
<path d="M6.14215 3.98694C5.4232 3.98694 4.83496 4.57517 4.83496 5.29413V53.8889C4.83496 54.6078 5.4232 55.1961 6.14215 55.1961H42.5147C43.2337 55.1961 43.8219 54.6078 43.8219 53.8889V13.9543L43.7239 5.32681C43.7239 4.60785 43.1029 3.98694 42.384 3.98694H6.14215Z" fill="#EBECE9"/>
<path d="M9.50804 6.43799H45.8806C47.0244 6.43799 47.9394 7.35302 47.9394 8.49681V57.0916C47.9394 58.2354 47.0244 59.1504 45.8806 59.1504C45.8806 59.1504 17.0897 59.2158 9.34464 59.1831C8.29889 59.1831 7.44922 58.3334 7.44922 57.2877V8.49681C7.44922 7.35302 8.36425 6.43799 9.50804 6.43799ZM9.5734 7.15694C8.85445 7.15694 8.26621 7.74518 8.26621 8.46413V57.0589C8.26621 57.7779 8.85445 58.3661 9.5734 58.3661H45.9459C46.6649 58.3661 47.2531 57.7779 47.2531 57.0589V17.1243L47.1551 8.49681C47.1551 7.77786 46.5342 7.15694 45.8152 7.15694H9.5734Z" fill="#22417D"/>
<path d="M9.5733 7.15683C8.85435 7.15683 8.26611 7.74506 8.26611 8.46401V57.0588C8.26611 57.7777 8.85435 58.366 9.5733 58.366H45.9459C46.6648 58.366 47.253 57.7777 47.253 57.0588V17.0915L47.155 8.46401C47.155 7.74506 46.5341 7.12415 45.8151 7.12415L9.5733 7.15683Z" fill="#EBECE9"/>
<path d="M47.2207 8.46401C47.2207 7.74506 46.2076 7.12415 44.9985 7.12415H42.6782C43.8874 7.12415 44.9004 7.71238 44.9004 8.46401L45.0638 17.0915V57.0261C45.0638 57.7451 44.1161 58.3333 42.907 58.3333H45.2272C46.4037 58.3333 47.3841 57.7451 47.3841 57.0261V17.0915L47.2207 8.46401Z" fill="#C1C1C1"/>
<path d="M47.4493 37.549L49.7042 39.9346C50.4232 40.6535 50.4232 41.7973 49.7042 42.4836L43.9853 48.2025C43.2663 48.9215 42.1225 48.9215 41.4362 48.2025L39.3447 46.013C39.3447 46.013 43.0375 43.6601 44.0833 42.6143C45.0964 41.6339 47.4493 37.549 47.4493 37.549Z" fill="#C7CFD6"/>
<path d="M42.7107 49.1176C42.1225 49.1176 41.5669 48.8888 41.1748 48.4966L38.9525 46.2744C38.8218 46.1437 38.8218 45.9149 38.9525 45.7515C39.0833 45.6208 39.312 45.6208 39.4427 45.7515L41.6649 47.9738C42.2532 48.5293 43.1355 48.5293 43.7238 47.9738L49.4427 42.2548C49.9983 41.6993 49.9983 40.7515 49.4427 40.196L46.861 37.6143C46.6976 37.4836 46.6976 37.2548 46.7957 37.1241C46.9264 36.9607 47.1551 36.9607 47.2859 37.0587C47.3185 37.0587 47.3185 37.0914 47.3512 37.1241L49.9329 39.7058C50.7826 40.5555 50.7826 41.928 49.9329 42.7777L44.214 48.4966C43.8545 48.8888 43.2989 49.1176 42.7107 49.1176Z" fill="#22417D"/>
<path d="M30.7171 48.0392C41.113 48.0392 49.5406 39.6116 49.5406 29.2156C49.5406 18.8197 41.113 10.3921 30.7171 10.3921C20.3211 10.3921 11.8936 18.8197 11.8936 29.2156C11.8936 39.6116 20.3211 48.0392 30.7171 48.0392Z" fill="#EBECE9"/>
<path d="M30.7172 48.3986C20.1289 48.3986 11.5342 39.8039 11.5342 29.2156C11.5342 18.6274 20.1289 10.0653 30.7172 10.0653C41.3054 10.0653 49.9002 18.6601 49.9002 29.2483C49.9002 39.8039 41.3054 48.3986 30.7172 48.3986ZM30.7172 10.7843C20.5211 10.7843 12.2531 19.0522 12.2531 29.2483C12.2531 39.4444 20.5211 47.7124 30.7172 47.7124C40.9133 47.7124 49.1812 39.4444 49.1812 29.2483C49.1812 19.0522 40.9133 10.7843 30.7172 10.7843Z" fill="#323C6B"/>
<path d="M30.7172 10.4248C25.7172 10.4248 20.9459 12.3856 17.4165 15.915C25.9786 9.99997 37.6779 12.1568 43.593 20.7189C48.7564 28.2026 47.8413 38.3006 41.4034 44.7385C49.9655 38.8562 52.1224 27.1241 46.2074 18.5621C42.7106 13.464 36.9263 10.4248 30.7172 10.4248Z" fill="#C1C1C1"/>
<path d="M44.5405 47.6797L55.1941 58.3007C56.4686 59.5752 58.5275 59.5752 59.802 58.3007C61.0765 57.0261 61.0765 54.9673 59.802 53.6928L49.1811 43.0719L44.5405 47.6797Z" fill="#9FEFDE"/>
<path d="M57.4818 59.6078C56.5341 59.6078 55.5864 59.2156 54.9328 58.562L44.3119 47.9084C44.1812 47.7777 44.1812 47.549 44.3119 47.3856L48.9197 42.7777C49.0505 42.647 49.2792 42.647 49.4426 42.7777L60.0635 53.3986C61.4688 54.8039 61.4688 57.0915 60.0635 58.5294C59.3773 59.2483 58.4622 59.6078 57.4818 59.6078ZM45.0635 47.6797L55.4557 58.0718C56.5668 59.2156 58.3969 59.2483 59.5407 58.1045C60.6845 56.9934 60.7171 55.1634 59.5733 54.0196L59.5407 53.9869L49.1485 43.5947L45.0635 47.6797Z" fill="#22417D"/>
<path d="M55.9135 56.3072C55.7501 56.5032 55.4559 56.5032 55.2599 56.3072L52.0899 53.1372C51.8939 52.9738 51.8939 52.6797 52.0899 52.4836C52.286 52.3202 52.5801 52.3202 52.7435 52.4836L55.9135 55.6536C56.1095 55.817 56.1095 56.1111 55.9135 56.3072Z" fill="white"/>
<path d="M51.6321 51.3725C51.7955 51.5686 51.7955 51.8627 51.6321 52.0261C51.534 52.1242 51.436 52.1568 51.3053 52.1568C51.1745 52.1568 51.0765 52.0915 50.9785 52.0261L49.9327 50.9804C49.7693 50.7843 49.7693 50.4902 49.9654 50.3268C50.1288 50.1634 50.4229 50.1634 50.5863 50.3268L51.6321 51.3725Z" fill="white"/>
<path d="M30.7172 48.3986C20.1289 48.3986 11.5342 39.8039 11.5342 29.2156C11.5342 18.6274 20.1289 10.0653 30.7172 10.0653C41.3054 10.0653 49.9002 18.6601 49.9002 29.2483C49.9002 39.8039 41.3054 48.3986 30.7172 48.3986ZM30.7172 10.7843C20.5211 10.7843 12.2531 19.0522 12.2531 29.2483C12.2531 39.4444 20.5211 47.7124 30.7172 47.7124C40.9133 47.7124 49.1812 39.4444 49.1812 29.2483C49.1812 19.0522 40.9133 10.7843 30.7172 10.7843Z" fill="#22417D"/>
<path d="M60.6517 50.6535C60.6517 50.5555 60.619 50.4575 60.5537 50.3921L59.3118 49.1503C59.1811 49.0196 58.9524 49.0196 58.789 49.1503C58.6582 49.281 58.6582 49.5098 58.789 49.6732L60.0308 50.915C60.1615 51.0457 60.3903 51.0457 60.5537 50.915C60.619 50.8496 60.6517 50.7516 60.6517 50.6535Z" fill="#22417D"/>
<path d="M63.5605 55.7843C63.5605 54.2484 62.9396 52.7778 61.8612 51.6994C61.7304 51.5686 61.5017 51.5686 61.3383 51.6994C61.2076 51.8301 61.2076 52.0588 61.3383 52.2222C63.2991 54.183 63.2991 57.3856 61.3383 59.3791C61.2076 59.5098 61.2076 59.7386 61.3383 59.902C61.469 60.0327 61.6978 60.0327 61.8612 59.902C62.9396 58.7909 63.5605 57.3203 63.5605 55.7843Z" fill="#22417D"/>
<path d="M14.639 43.1045C14.639 43.0065 14.6063 42.9411 14.541 42.8758C14.1161 42.3856 13.822 41.9607 13.5279 41.5686C13.4299 41.4052 13.2011 41.3398 13.0377 41.4705C12.8743 41.5686 12.8089 41.7973 12.9397 41.9607C12.9397 41.9607 12.9397 41.9934 12.9723 41.9934C13.2665 42.4183 13.5933 42.8431 14.0181 43.366C14.1488 43.5294 14.3776 43.5294 14.5083 43.3986C14.5736 43.3006 14.639 43.2026 14.639 43.1045Z" fill="#22417D"/>
<path d="M25.8478 50.098C25.8478 49.9346 25.7498 49.8039 25.5864 49.7385C22.057 48.8888 18.8217 47.0915 16.1746 44.6078C16.0439 44.4771 15.8151 44.4771 15.6518 44.6078C15.521 44.7385 15.521 44.9673 15.6518 45.1307C18.3642 47.7451 21.7302 49.5751 25.3903 50.4575C25.5864 50.4902 25.7825 50.3921 25.8151 50.196C25.8478 50.1634 25.8478 50.1307 25.8478 50.098Z" fill="#22417D"/>
<path d="M19.8677 22.2876H25.1291V39.1177H19.8677V22.2876Z" fill="#9FEFDE"/>
<path d="M23.0703 22.2876H25.1618V39.1177H23.0703V22.2876Z" fill="#24C4A1"/>
<path d="M25.1292 39.4445H19.8678C19.6717 39.4445 19.541 39.2811 19.541 39.1177V22.2876C19.541 22.0915 19.7044 21.9608 19.8678 21.9608H25.1292C25.3253 21.9608 25.456 22.4183 25.456 22.5817V39.1177C25.456 39.2811 25.2926 39.4445 25.1292 39.4445ZM20.1946 38.7582H24.7698V22.6144H20.1946V38.7582Z" fill="#244583"/>
<path d="M28.2012 26.34H33.4299V39.1177H28.2012V26.34Z" fill="#FED19A"/>
<path d="M31.3384 26.34H33.4299V39.1177H31.3384V26.34Z" fill="#FEBF2D"/>
<path d="M33.4301 39.4445H28.2013C28.0052 39.4445 27.8745 39.2811 27.8745 39.1177V26.3073C27.8745 26.1112 28.0379 25.9805 28.2013 25.9805H33.4301C33.6261 25.9805 33.7569 26.1439 33.7569 26.3073V39.085C33.7895 39.2811 33.6261 39.4445 33.4301 39.4445ZM28.5281 38.7582H33.1033V26.6667H28.5281V38.7582Z" fill="#244583"/>
<path d="M36.3711 20.2615H41.6325V39.1177H36.3711V20.2615Z" fill="#B6D2DD"/>
<path d="M39.541 20.2615H41.6325V39.1177H39.541V20.2615Z" fill="#ACC6CC"/>
<path d="M41.6327 39.4445H36.3712C36.1752 39.4445 36.0444 39.2811 36.0444 39.1177V20.2615C36.0444 20.0654 36.2078 19.9347 36.3712 19.9347H41.6327C41.8287 19.9347 41.9595 20.0981 41.9595 20.2615V39.1177C41.9595 39.2811 41.7961 39.4445 41.6327 39.4445ZM36.698 38.7582H41.2732V20.5883H36.698V38.7582Z" fill="#244583"/>
</svg>

<svg xmlns="http://www.w3.org/2000/svg" xmlns:xlink="http://www.w3.org/1999/xlink" width="64" height="60" fill="none" xmlns:v="https://vecta.io/nano"><path d="M2.809 0h36.373a2.05 2.05 0 0 1 2.059 2.059v48.595a2.05 2.05 0 0 1-2.059 2.059l-36.536.033C1.6 52.745.75 51.895.75 50.85V2.059A2.05 2.05 0 0 1 2.809 0zm.065.719a1.31 1.31 0 0 0-1.307 1.307v48.595a1.31 1.31 0 0 0 1.307 1.307h36.373a1.31 1.31 0 0 0 1.307-1.307V10.686l-.098-8.627a1.37 1.37 0 0 0-1.34-1.34H2.874z" fill="#22417d"/><path d="M2.874.719a1.31 1.31 0 0 0-1.307 1.307v48.595a1.31 1.31 0 0 0 1.307 1.307h36.373a1.31 1.31 0 0 0 1.307-1.307V10.686l-.098-8.627a1.37 1.37 0 0 0-1.34-1.34H2.874z" fill="#ebece9"/><path d="M6.077 3.268h36.373a2.05 2.05 0 0 1 2.059 2.059v48.595a2.05 2.05 0 0 1-2.059 2.059l-36.536.033c-1.046 0-1.895-.85-1.895-1.895V5.327a2.05 2.05 0 0 1 2.059-2.059zm.065.719a1.31 1.31 0 0 0-1.307 1.307v48.595a1.31 1.31 0 0 0 1.307 1.307h36.373a1.31 1.31 0 0 0 1.307-1.307V13.954l-.098-8.627a1.37 1.37 0 0 0-1.34-1.34H6.142z" fill="#22417d"/><path d="M6.142 3.987a1.31 1.31 0 0 0-1.307 1.307v48.595a1.31 1.31 0 0 0 1.307 1.307h36.373a1.31 1.31 0 0 0 1.307-1.307V13.954l-.098-8.627a1.37 1.37 0 0 0-1.34-1.34H6.142z" fill="#ebece9"/><path d="M9.508 6.438h36.373a2.05 2.05 0 0 1 2.059 2.059v48.595a2.05 2.05 0 0 1-2.059 2.059l-36.536.033c-1.046 0-1.895-.85-1.895-1.895V8.497a2.05 2.05 0 0 1 2.059-2.059zm.065.719a1.31 1.31 0 0 0-1.307 1.307v48.595a1.31 1.31 0 0 0 1.307 1.307h36.373a1.31 1.31 0 0 0 1.307-1.307V17.124l-.098-8.627a1.37 1.37 0 0 0-1.34-1.34H9.573z" fill="#22417d"/><path d="M9.573 7.157a1.31 1.31 0 0 0-1.307 1.307v48.595a1.31 1.31 0 0 0 1.307 1.307h36.373a1.31 1.31 0 0 0 1.307-1.307V17.092l-.098-8.627a1.37 1.37 0 0 0-1.34-1.34l-36.242.033z" fill="#ebece9"/><path d="M47.221 8.464c0-.719-1.013-1.34-2.222-1.34h-2.32c1.209 0 2.222.588 2.222 1.34l.163 8.627v39.935c0 .719-.948 1.307-2.157 1.307h2.32c1.176 0 2.157-.588 2.157-1.307V17.092l-.163-8.627z" fill="#c1c1c1"/><path d="M47.449 37.549l2.255 2.386c.719.719.719 1.863 0 2.549l-5.719 5.719c-.719.719-1.863.719-2.549 0l-2.091-2.19s3.693-2.353 4.739-3.399c1.013-.98 3.366-5.065 3.366-5.065z" fill="#c7cfd6"/><path d="M42.711 49.118c-.588 0-1.144-.229-1.536-.621l-2.222-2.222c-.131-.131-.131-.359 0-.523.131-.131.359-.131.49 0l2.222 2.222a1.48 1.48 0 0 0 2.059 0l5.719-5.719a1.48 1.48 0 0 0 0-2.059l-2.582-2.582c-.163-.131-.163-.359-.065-.49.131-.163.359-.163.49-.065.033 0 .033.033.065.065l2.582 2.582a2.17 2.17 0 0 1 0 3.072l-5.719 5.719c-.359.392-.915.621-1.503.621z" fill="#22417d"/><path d="M30.717 48.039c10.396 0 18.824-8.428 18.824-18.824s-8.428-18.823-18.823-18.823-18.823 8.428-18.823 18.824 8.428 18.824 18.824 18.824z" fill="#ebece9"/><use xlink:href="#B" fill="#323c6b"/><path d="M30.717 10.425c-5 0-9.771 1.961-13.301 5.49 8.562-5.915 20.261-3.758 26.177 4.804 5.163 7.484 4.248 17.582-2.19 24.02 8.562-5.882 10.719-17.614 4.804-26.176-3.497-5.098-9.281-8.137-15.49-8.137z" fill="#c1c1c1"/><path d="M44.541 47.68l10.654 10.621c1.275 1.275 3.333 1.275 4.608 0s1.275-3.333 0-4.608L49.181 43.072l-4.641 4.608z" fill="#9fefde"/><path d="M57.482 59.608c-.948 0-1.895-.392-2.549-1.046L44.312 47.908c-.131-.131-.131-.359 0-.523l4.608-4.608c.131-.131.36-.131.523 0l10.621 10.621c1.405 1.405 1.405 3.693 0 5.131-.686.719-1.601 1.078-2.582 1.078zM45.064 47.68l10.392 10.392a2.86 2.86 0 1 0 4.118-4.052l-.033-.033-10.392-10.392-4.085 4.085z" fill="#22417d"/><path d="M55.914 56.307c-.163.196-.458.196-.654 0l-3.17-3.17c-.196-.163-.196-.458 0-.654.196-.163.49-.163.654 0l3.17 3.17c.196.163.196.458 0 .654zm-4.282-4.934c.163.196.163.49 0 .654a.42.42 0 0 1-.327.131c-.131 0-.229-.065-.327-.131l-1.046-1.046c-.163-.196-.163-.49.033-.654.163-.163.457-.163.621 0l1.046 1.046z" fill="#fff"/><g fill="#22417d"><use xlink:href="#B"/><path d="M60.652 50.654c0-.098-.033-.196-.098-.261l-1.242-1.242c-.131-.131-.359-.131-.523 0-.131.131-.131.359 0 .523l1.242 1.242c.131.131.36.131.523 0 .065-.065.098-.163.098-.261zm2.909 5.13a5.79 5.79 0 0 0-1.699-4.085c-.131-.131-.359-.131-.523 0-.131.131-.131.359 0 .523 1.961 1.961 1.961 5.163 0 7.157-.131.131-.131.359 0 .523.131.131.36.131.523 0 1.078-1.111 1.699-2.582 1.699-4.118zM14.639 43.105c0-.098-.033-.163-.098-.229-.425-.49-.719-.915-1.013-1.307-.098-.163-.327-.229-.49-.098-.163.098-.229.327-.098.49 0 0 0 .033.033.033l1.046 1.373a.33.33 0 0 0 .49.033c.065-.098.131-.196.131-.294zm11.209 6.993c0-.163-.098-.294-.261-.359-3.529-.85-6.765-2.647-9.412-5.131-.131-.131-.36-.131-.523 0-.131.131-.131.36 0 .523 2.712 2.614 6.078 4.444 9.739 5.327.196.033.392-.065.425-.262.033-.033.033-.065.033-.098z"/></g><path d="M19.868 22.288h5.261v16.83h-5.261v-16.83z" fill="#9fefde"/><path d="M23.07 22.288h2.092v16.83H23.07v-16.83z" fill="#24c4a1"/><path d="M25.129 39.445h-5.261c-.196 0-.327-.163-.327-.327v-16.83c0-.196.163-.327.327-.327h5.261c.196 0 .327.457.327.621v16.536c0 .163-.163.327-.327.327zm-4.935-.686h4.575V22.614h-4.575v16.144z" fill="#244583"/><path d="M28.201 26.34h5.229v12.778h-5.229V26.34z" fill="#fed19a"/><path d="M31.338 26.34h2.092v12.778h-2.092V26.34z" fill="#febf2d"/><path d="M33.43 39.445h-5.229c-.196 0-.327-.163-.327-.327v-12.81c0-.196.163-.327.327-.327h5.229c.196 0 .327.163.327.327v12.778c.033.196-.131.359-.327.359zm-4.902-.686h4.575V26.667h-4.575v12.092z" fill="#244583"/><path d="M36.371 20.262h5.261v18.856h-5.261V20.262z" fill="#b6d2dd"/><path d="M39.541 20.262h2.092v18.856h-2.092V20.262z" fill="#acc6cc"/><path d="M41.633 39.445h-5.261c-.196 0-.327-.163-.327-.327V20.262c0-.196.163-.327.327-.327h5.261c.196 0 .327.163.327.327v18.856c0 .163-.163.327-.327.327zm-4.935-.686h4.575v-18.17h-4.575v18.17z" fill="#244583"/><defs ><path id="B" d="M30.717 48.399c-10.588 0-19.183-8.595-19.183-19.183s8.595-19.15 19.183-19.15S49.9 18.66 49.9 29.248c0 10.556-8.595 19.15-19.183 19.15zm0-37.614a18.47 18.47 0 0 0-18.464 18.464 18.47 18.47 0 0 0 18.464 18.464 18.47 18.47 0 0 0 18.464-18.464 18.47 18.47 0 0 0-18.464-18.464z"/></defs></svg>
